X: 1
T: Coming Home From The Bog
M: 4/4
L: 1/8
R: reel
K: Amaj
~E3F ABcA|eA (3cBA BFAF|~E3F ABcA|BF~F2 BFAF|
~E3F ABcA|eA (3cBA BFAF|~E3F ABcf|edcA BAaA||
Bcce cdad|Bcac BAFA|Bcce ~d3f|edcA BAaA|
Bcce cdad|Bcac BAFA|~a3e faaf|edcA BAAF||
